X: 84
T:Devil To Pay (#280), The
M:4/4
L:1/8
S:Rice-Walsh manuscript
R:Reel
K:A
d2|ceAe ceAe|ceag fedc|dfBf dfBf|dfba gfed|
ceAe ceAe|ceag fedc|dfBf dfBf|edcB A2||
E2|EBGB EBGB|ceAe ceAe|dfBf dfBf|gabg a2 aa|
bagf edcB|cBAF E2 Bd|ceAe ceaf|edcB A2||

